content/podcast/s06e05-veo/logo.svg

<svg xmlns="http://www.w3.org/2000/svg" fill="currentColor" viewBox="0 0 78 26" width="100%"><path d="M77.8846 7.54334C77.0917 2.44824 72.7148 0.333336 67.7163 0.333336C62.0279 0.333336 56.9563 2.8604 53.8502 7.4963C51.983 10.2823 50.7112 14.3816 51.2267 17.6946C52.0252 22.8251 56.395 24.857 61.4074 24.857C67.1426 24.857 72.1293 22.4888 75.2426 17.8129C77.1077 15.0118 78.4022 10.872 77.8846 7.54334ZM66.6616 17.0832C65.0079 18.789 61.447 19.5556 60.2286 17.1069C59.0602 14.7579 60.6701 10.1088 62.4719 8.3009C63.4942 7.27531 64.6971 6.762 66.0817 6.762C67.4662 6.762 68.4052 7.2748 68.8992 8.3009C70.0342 10.6586 68.4325 15.257 66.6621 17.0832H66.6616Z"></path><path d="M51.2697 10.3865C51.9201 7.86902 51.6813 5.19175 49.8281 3.1785C47.8796 1.06106 44.898 0.333336 42.0435 0.333336C36.7157 0.333336 32.0363 2.7188 29.0078 6.85354C26.9657 9.64155 25.8683 12.8175 25.9218 15.7177C26.0448 22.4417 32.0152 25.032 38.0602 24.8479C41.8588 24.7326 46.3731 22.7957 47.6656 20.297C48.3257 19.0211 47.7618 16.4748 45.6363 17.7477C42.6059 19.5622 33.906 20.0694 33.3102 15.7794L46.829 13.9027C49.1006 13.5877 50.6997 12.5939 51.2697 10.387V10.3865ZM43.3457 9.04531L34.6407 10.3334C35.4284 7.9378 37.5338 6.28562 40.2535 6.28562C42.0111 6.28562 43.532 7.23839 43.3457 9.04531Z"></path><path d="M20.0362 2.52256L12.2845 18.8506C12.1528 14.1748 11.8343 8.13096 11.4773 3.46724C11.1562 -0.344342 8.26518 0.0784367 5.48733 0.979118C3.83626 1.51467 2.02003 2.32331 0.62725 2.86493C-0.265943 3.21236 -0.198542 4.36742 0.786749 4.62179C3.33255 5.27922 3.3449 6.70737 3.64846 9.05238L5.18582 20.9322C5.39523 22.5499 5.61956 24.1096 7.33803 24.6244C10.2147 25.4866 16.2607 25.5549 18.594 21.3681L29.6853 1.46865C30.95 -0.800499 20.8815 0.742442 20.0362 2.52256Z"></path></svg>

<svg xmlns="http://www.w3.org/2000/svg" fill="currentColor" viewBox="0 0 78 26"><path d="M77.885 7.543c-.793-5.095-5.17-7.21-10.169-7.21-5.688 0-10.76 2.527-13.866 7.163-1.867 2.786-3.139 6.886-2.623 10.199.798 5.13 5.168 7.162 10.18 7.162 5.736 0 10.722-2.368 13.836-7.044 1.865-2.801 3.16-6.941 2.642-10.27m-11.223 9.54c-1.654 1.706-5.215 2.473-6.433.024-1.169-2.35.441-6.998 2.243-8.806q1.533-1.539 3.61-1.539t2.817 1.539c1.135 2.358-.466 6.956-2.237 8.782M51.27 10.387c.65-2.518.411-5.195-1.442-7.209C47.88 1.061 44.898.333 42.043.333c-5.327 0-10.007 2.386-13.035 6.52-2.042 2.789-3.14 5.965-3.086 8.865.123 6.724 6.093 9.314 12.138 9.13 3.799-.115 8.313-2.052 9.606-4.551.66-1.276.096-3.822-2.03-2.55-3.03 1.815-11.73 2.322-12.326-1.968l13.519-1.876c2.272-.315 3.87-1.31 4.44-3.516m-7.924-1.342-8.705 1.288c.787-2.395 2.893-4.047 5.613-4.047 1.757 0 3.278.952 3.092 2.76M20.036 2.523 12.284 18.85c-.131-4.676-.45-10.72-.807-15.384C11.157-.344 8.265.078 5.487.98c-1.65.536-3.467 1.344-4.86 1.886-.893.347-.826 1.502.16 1.757 2.546.657 2.558 2.085 2.861 4.43l1.538 11.88c.21 1.618.434 3.178 2.152 3.692 2.877.863 8.923.93 11.256-3.256l11.091-19.9C30.95-.8 20.882.743 20.036 2.524"/></svg>
